X:2111
T:Furlana
O:england
C:Ferdinando Valcelli
C:Balli tradizionali in Umbria 26
M:6/8
L:1/8
K:G
d3|cBA ABc|d2B d2g|fed cBA|B2G- G2d|\
cBA ABc|d2B d2g|fed cBA|G3-G2|]
F|A2F A2e|d3 g2g|fed cBA|B2G- G2F|\
A2F A2e|d3 g2g|fed cBA|G3||
